priv/static/svgs/icons_new/sport-canoeing.svg

<svg width="32" height="32" viewBox="0 0 32 32" fill="none" xmlns="http://www.w3.org/2000/svg">
<path d="M20.3692 12.331C20.6009 13.4961 20.7406 14.7259 20.7406 16C20.7406 23.1813 16.2812 29 16.2812 29C16.2812 29 13.532 25.4127 12.3498 20.3947M11.9785 18.3813C11.8763 17.6114 11.8218 16.8142 11.8218 16.0034C11.8218 8.82206 16.2812 3 16.2812 3C16.2812 3 18.625 6.06263 19.9161 10.4811M13.7159 16.5655C13.6921 16.3816 13.6785 16.1942 13.6785 16C13.6785 14.1263 14.8436 12.6069 16.2778 12.6069C16.6764 12.6069 17.0545 12.7227 17.3918 12.934M18.5092 14.249C18.7476 14.76 18.8839 15.3595 18.8839 16C18.8839 17.8737 17.7188 19.3931 16.2846 19.3931C15.5692 19.3931 14.9219 19.0149 14.4518 18.4051M25.9188 6.76782L6.6913 25.9033M23.282 10.4096L22.2361 9.36032L23.1934 6.74738L25.8745 4.07652L27.4654 5.12238L28.5624 6.77804L25.8234 9.50681L23.282 10.4096ZM9.28381 22.3058L10.3263 23.3551L9.36897 25.9714L6.68789 28.6389L5.09696 27.5964L4 25.9374L6.73899 23.212L9.28381 22.3058Z" stroke="black" stroke-miterlimit="10"/>
</svg>

<svg width="32" height="32" viewBox="0 0 32 32" fill="none" xmlns="http://www.w3.org/2000/svg">
  <symbol id="item" viewBox="0 0 32 32" stroke-width="1" fill="none">
    <path d="M20.37 12.331A18.81 18.81 0 0 1 20.74 16c0 7.181-4.459 13-4.459 13s-2.749-3.587-3.931-8.605m-.371-2.014a18.103 18.103 0 0 1-.157-2.378c0-7.18 4.46-13.003 4.46-13.003s2.343 3.063 3.634 7.481m-6.2 6.085a4.387 4.387 0 0 1-.037-.566c0-1.874 1.165-3.393 2.599-3.393.398 0 .777.116 1.114.327m1.117 1.315c.239.511.375 1.11.375 1.751 0 1.874-1.165 3.393-2.6 3.393-.715 0-1.362-.378-1.832-.988M25.919 6.768 6.69 25.903M23.282 10.41l-1.046-1.05.957-2.613 2.681-2.67 1.591 1.045 1.097 1.656-2.739 2.729-2.541.903ZM9.284 22.306l1.042 1.05-.957 2.615-2.681 2.668-1.591-1.043L4 25.937l2.739-2.725 2.545-.906Z" stroke="currentColor" stroke-miterlimit="10"/>
  </symbol>
</svg>
